wallet_core/revocation_portal/assets/images/error_illustration.svg

<svg width="800" height="214" viewBox="0 0 800 214" fill="none" xmlns="http://www.w3.org/2000/svg">
<g clip-path="url(#clip0_47416_196020)">
<path d="M0 16C0 7.16344 7.16344 0 16 0H784C792.837 0 800 7.16344 800 16V198C800 206.837 792.837 214 784 214H16C7.16343 214 0 206.837 0 198V16Z" fill="#F5F4F9"/>
<path d="M464.506 52.0645H335.494C324.522 52.0645 315.627 60.9594 315.627 71.9314V76.4454C316.599 75.8375 317.745 75.4794 318.977 75.4794C321.376 75.4794 323.465 76.8144 324.544 78.7794C325.507 74.6794 329.187 71.6365 333.582 71.6365C338.041 71.6365 341.767 74.7715 342.675 78.9555C342.781 79.4425 342.41 79.9054 341.912 79.9054H325.025H324.342H315.627V136.146C315.627 147.118 324.522 156.013 335.494 156.013H464.506C475.478 156.013 484.373 147.118 484.373 136.146V71.9314C484.373 60.9594 475.478 52.0645 464.506 52.0645Z" fill="#E3E0FD"/>
<path d="M396.955 170.564V117.27H405.528V170.564" fill="#F5F4F9"/>
<path d="M396.955 170.564V117.27H405.528V170.564" stroke="#152A62" stroke-miterlimit="10" stroke-linecap="round" stroke-linejoin="round"/>
<path d="M396.957 123.261L405.547 124.861L405.567 121.488H396.988L396.957 123.261Z" fill="#152A62" stroke="#152A62" stroke-miterlimit="10" stroke-linecap="round" stroke-linejoin="round"/>
<path d="M445.334 112.98L404.13 41.6128C403.645 40.7728 402.985 40.1368 402.239 39.6908L402.274 38.9258H399.499C399.483 38.9258 399.466 38.9258 399.45 38.9258H399.378L399.38 38.9298C397.601 38.9608 395.835 39.8518 394.819 41.6118L353.615 112.979C351.546 116.563 354.132 121.044 358.271 121.044H440.679C444.816 121.045 447.403 116.564 445.334 112.98Z" fill="#152A62" stroke="#152A62" stroke-miterlimit="10" stroke-linecap="round" stroke-linejoin="round"/>
<path d="M397.617 41.6126L356.413 112.98C354.344 116.564 356.93 121.045 361.069 121.045H443.477C447.616 121.045 450.203 116.565 448.133 112.98L406.93 41.6126C404.86 38.0276 399.687 38.0276 397.617 41.6126Z" fill="#FFB7AD" stroke="#152A62" stroke-miterlimit="10" stroke-linecap="round" stroke-linejoin="round"/>
<path d="M366.067 112.783L402.274 50.0723L438.48 112.783H366.067Z" fill="#FCFCFC" stroke="#152A62" stroke-miterlimit="10" stroke-linejoin="round"/>
<path d="M404.229 93.879H399.795C399.1 93.879 398.528 93.332 398.498 92.638L397.565 71.483C397.532 70.744 398.123 70.127 398.862 70.127H405.162C405.902 70.127 406.492 70.744 406.459 71.483L405.526 92.638C405.495 93.332 404.924 93.879 404.229 93.879Z" fill="#152A62"/>
<path d="M402.012 106.074C404.263 106.074 406.087 104.249 406.087 101.999C406.087 99.7483 404.263 97.9238 402.012 97.9238C399.761 97.9238 397.937 99.7483 397.937 101.999C397.937 104.249 399.761 106.074 402.012 106.074Z" fill="#152A62"/>
<path d="M452.584 135.473H442.88C442.346 135.473 442.021 134.896 442.281 134.43C443.243 132.706 445.087 131.537 447.204 131.537C449.338 131.537 451.196 132.725 452.156 134.472C452.328 134.789 452.473 135.121 452.584 135.473Z" fill="#F5F4F9"/>
<path d="M468.282 134.627C468.376 135.06 468.046 135.472 467.603 135.472H451.976C452.017 135.134 452.073 134.795 452.156 134.471C453.012 130.825 456.286 128.117 460.195 128.117C464.16 128.117 467.474 130.905 468.282 134.627Z" fill="#F5F4F9"/>
</g>
<defs>
<clipPath id="clip0_47416_196020">
<path d="M0 16C0 7.16344 7.16344 0 16 0H784C792.837 0 800 7.16344 800 16V198C800 206.837 792.837 214 784 214H16C7.16343 214 0 206.837 0 198V16Z" fill="white"/>
</clipPath>
</defs>
</svg>

<svg xmlns="http://www.w3.org/2000/svg" width="800" height="214" fill="none" viewBox="0 0 800 214"><g clip-path="url(#a)"><path fill="#f5f4f9" d="M0 16C0 7.163 7.163 0 16 0h768c8.837 0 16 7.163 16 16v182c0 8.837-7.163 16-16 16H16c-8.837 0-16-7.163-16-16z"/><path fill="#e3e0fd" d="M464.506 52.065H335.494c-10.972 0-19.867 8.894-19.867 19.866v4.514a6.3 6.3 0 0 1 3.35-.966 6.35 6.35 0 0 1 5.567 3.3 9.28 9.28 0 0 1 9.038-7.142 9.31 9.31 0 0 1 9.093 7.319.783.783 0 0 1-.763.95h-26.285v56.24c0 10.972 8.895 19.867 19.867 19.867h129.012c10.972 0 19.867-8.895 19.867-19.867V71.931c0-10.972-8.895-19.866-19.867-19.866"/><path fill="#f5f4f9" d="M396.955 170.564V117.27h8.573v53.294"/><path stroke="#152a62" stroke-linecap="round" stroke-linejoin="round" stroke-miterlimit="10" d="M396.955 170.564V117.27h8.573v53.294"/><path fill="#152a62" stroke="#152a62" stroke-linecap="round" stroke-linejoin="round" stroke-miterlimit="10" d="m396.957 123.261 8.59 1.6.02-3.373h-8.579zM445.334 112.98 404.13 41.613a5.3 5.3 0 0 0-1.891-1.922l.035-.765h-2.896l.002.004c-1.779.03-3.545.922-4.561 2.682l-41.204 71.367c-2.069 3.584.517 8.065 4.656 8.065h82.408c4.137.001 6.724-4.48 4.655-8.064"/><path fill="#ffb7ad" stroke="#152a62" stroke-linecap="round" stroke-linejoin="round" stroke-miterlimit="10" d="m397.617 41.613-41.204 71.367c-2.069 3.584.517 8.065 4.656 8.065h82.408c4.139 0 6.726-4.48 4.656-8.065L406.93 41.613c-2.07-3.585-7.243-3.585-9.313 0"/><path fill="#fcfcfc" stroke="#152a62" stroke-linejoin="round" stroke-miterlimit="10" d="m366.067 112.783 36.207-62.71 36.206 62.71z"/><path fill="#152a62" d="M404.229 93.879h-4.434a1.3 1.3 0 0 1-1.297-1.241l-.933-21.155a1.3 1.3 0 0 1 1.297-1.356h6.3c.74 0 1.33.617 1.297 1.356l-.933 21.155a1.3 1.3 0 0 1-1.297 1.241M402.012 106.074a4.075 4.075 0 1 0 0-8.15 4.075 4.075 0 0 0 0 8.15"/><path fill="#f5f4f9" d="M452.584 135.473h-9.704c-.534 0-.859-.577-.599-1.043a5.63 5.63 0 0 1 4.923-2.893 5.65 5.65 0 0 1 5.38 3.936"/><path fill="#f5f4f9" d="M468.282 134.627a.697.697 0 0 1-.679.845h-15.627c.041-.338.097-.677.18-1.001a8.254 8.254 0 0 1 8.039-6.354 8.28 8.28 0 0 1 8.087 6.51"/></g><defs><clipPath id="a"><path fill="#fff" d="M0 16C0 7.163 7.163 0 16 0h768c8.837 0 16 7.163 16 16v182c0 8.837-7.163 16-16 16H16c-8.837 0-16-7.163-16-16z"/></clipPath></defs></svg>
